X:214
T:Unknown Hambo
M:3/4
L:1/8
K:D
|D>F|:"D"A2 A2 F>A | d2 d>A B>A | "G"G2 G>B A>G|"D"F>G "A"E>F "D"D>F |
  | "D"A2 A2 F>A | d2 d>A B>A | "G"G2 G>g f>e|1 "D"d4 D>F :|2 "D"d4 A>d
||
P:B
|| "D"f2 f>a g>f | "A"e2 e>g f>e | "Bm"d2 d>f e>d | "A"c>d B>c A>d|
| "D"f2 f>a g>f | "A"e2 e>g f>e | "Bm"d2 d>f "A"e>c |1 "D"d4 A>d :|2 "D"
d4||
